icon-themes/sifr_svg/cmd/sc_arrowshapes.chevron.svg

<svg viewBox="0 0 16 16" xmlns="http://www.w3.org/2000/svg"><g fill="#555753"><path d="m2.3 4h8.2l4 4-4 4h-8.2l3.7-4z" opacity=".35"/><path d="m.01 3 1.5564062 1.6796875 3.0722657 3.3203125-4.6286719 5h10.89l5-5-5-5zm4.59 2h5.5l3 3-3 3h-5.5l2.7613281-3z"/></g></svg>

<svg xmlns="http://www.w3.org/2000/svg" viewBox="0 0 16 16">
  <path
     style="fill:#555753;opacity:0.35"
     d="m 2.3,4 h 8.2 l 4,4 -4,4 H 2.3 L 6,8 Z"
     />
  <path
     style="fill:#555753"
     d="M 0.01,3 1.5664062,4.6796875 4.6386719,8 0.01,13 H 10.9 l 5,-5 -5,-5 z M 4.6,5 h 5.5 l 3,3 -3,3 H 4.6 L 7.3613281,8 Z"
     />
</svg>
